X: 5147
T: Brig O' Perth, The
R: strathspey
M: 4/4
K: Amixolydian
|:A>c e>g f>d e>c|A>c e>^g a>e c2|A>c e>=g f>d e>c|d>B G>f g>d B2:|
A>a e<a c<ae<a|A<A c>e a>e c2|A>a e<a c>ae>a|g>a (3gfe d<G B2|
A>a e<a c<ae<a|A<Ac>e a>gf>g|(3afa (3geg (3fdf (3ece|d/c/B/A/ G>f g>d B2||

